dist/icons/email-good.svg

<?xml version="1.0" encoding="utf-8"?>
<!-- Generated by IcoMoon.io -->
<!DOCTYPE svg PUBLIC "-//W3C//DTD SVG 1.1//EN" "http://www.w3.org/Graphics/SVG/1.1/DTD/svg11.dtd">
<svg version="1.1" xmlns="http://www.w3.org/2000/svg" xmlns:xlink="http://www.w3.org/1999/xlink" width="32" height="32" viewBox="0 0 32 32">
<path d="M14.662 7.344v6.991l-3.561-3.225v3.234l4.898 4.431 4.898-4.431v-3.234l-3.563 3.225v-6.991z"></path>
<path d="M17.605 23.762c-0.905 0.887-2.377 0.887-3.283 0l-1.959-1.922-10.364 10.159h27.931l-10.363-10.159-1.962 1.922z"></path>
<path d="M31.975 9.697l-0.033 0.032 0.018-0.034-13.939-8.855c-0.563-0.54-1.295-0.815-2.036-0.84v-0.001c-0.002 0-0.003 0-0.005 0s-0.003-0-0.005-0v0.001c-0.741 0.025-1.473 0.3-2.036 0.84l-13.939 8.855 0.028 0.054-0.028-0.027v19.798c0 0.561 0.169 1.053 0.409 1.477l10.648-10.438-9.348-9.162 13.351-8.506c0.251-0.239 0.573-0.357 0.903-0.384 0.33 0.027 0.652 0.145 0.903 0.384l13.362 8.513-9.359 9.155 10.695 10.484c0.258-0.431 0.434-0.941 0.434-1.523l-0.025-19.823z"></path>
</svg>

<svg xmlns="http://www.w3.org/2000/svg" width="32" height="32" viewBox="0 0 32 32"><path d="M14.662 7.344v6.99l-3.56-3.224v3.234l4.897 4.43 4.897-4.43V11.11l-3.563 3.225v-6.99zM17.605 23.762c-.905.887-2.377.887-3.283 0l-1.96-1.922L2 32h27.93L19.567 21.84l-1.962 1.922z"/><path d="M31.975 9.697l-.033.032.018-.035L18.02.84C17.46.3 16.727.025 15.986 0h-.01c-.74.025-1.473.3-2.036.84L0 9.695l.028.054L0 9.72V29.52c0 .56.17 1.053.41 1.477L11.056 20.56 1.71 11.396 15.06 2.89c.25-.238.573-.356.903-.383.33.027.652.145.903.384l13.362 8.514-9.36 9.155 10.696 10.483c.258-.43.434-.94.434-1.523l-.025-19.823z"/></svg>
